packages/icon/src/svg/home-content-tools.icon.svg

<svg width="24" height="24" viewBox="0 0 24 24" fill="none" xmlns="http://www.w3.org/2000/svg">
<path d="M20.8889 3C21.5025 3 22 3.57563 22 4.28571V19.7143C22 20.4244 21.5025 21 20.8889 21H19V19H19.9967L19.999 9H4V19H5V21H3.11111C2.49746 21 2 20.4244 2 19.7143V4.28571C2 3.57563 2.49746 3 3.11111 3H20.8889ZM6 7H4V5H6V7ZM8 5V7H10V5H8ZM12 7H20V5H12V7ZM8 16.8624V20.5C8 20.7762 8.22351 21 8.49966 21H11V19C11 18.453 11.4258 18 12 18C12.5742 18 13 18.453 13 19V21H15.5003C15.7765 21 16 20.7762 16 20.5V16.8672H16.9998C17.2761 16.8672 17.4998 16.6431 17.4996 16.3668L17.4995 16.3482C17.4994 16.2115 17.4437 16.0811 17.3441 15.9874C16.4988 15.1922 13.3774 12.2855 12.3368 11.3167C12.1446 11.1377 11.8478 11.139 11.6559 11.3182L6.65871 15.9859C6.55748 16.0804 6.50001 16.2127 6.50001 16.3512V16.3653C6.5 16.6422 6.7248 16.8664 7.00167 16.8654C7.38982 16.864 7.8807 16.8624 8 16.8624Z" fill="white"/>
</svg>

<svg aria-label="home content tools icon" viewBox="0 0 24 24"><path d="M20.889 3C21.503 3 22 3.576 22 4.286v15.428c0 .71-.497 1.286-1.111 1.286H19v-2h.997l.002-10H4v10h1v2H3.111C2.497 21 2 20.424 2 19.714V4.286C2 3.576 2.497 3 3.111 3H20.89zM6 7H4V5h2v2zm2-2v2h2V5H8zm4 2h8V5h-8v2zm-4 9.862V20.5a.5.5 0 00.5.5H11v-2c0-.547.426-1 1-1a.99.99 0 011 1v2h2.5a.5.5 0 00.5-.5v-3.633h1a.5.5 0 00.5-.5v-.019a.495.495 0 00-.156-.36c-.845-.796-3.967-3.702-5.007-4.671a.499.499 0 00-.681.001l-4.997 4.668a.5.5 0 00-.159.365v.014a.5.5 0 00.502.5L8 16.862z"/></svg>
